!!!COM: Palestrina, Giovanni Perluigi da
!!!OPR: Missa Iste confessor
!!!OTL: Credo
**kern	**kern	**kern	**kern
*Ibass	*Itenor	*Icalto	*Icant
!Bassus	!Tenor	!Altus	!Cantus
*clefF4	*clefGv2	*clefG2	*clefG2
*k[]	*k[]	*k[]	*k[]
*G:mix	*G:mix	*G:mix	*G:mix
*M4/2	*M4/2	*M4/2	*M4/2
=1	=1	=1	=1
0r	0r	1r	1g
.	.	1d	1a
=2	=2	=2	=2
0r	0r	1e	2g
.	.	.	2e
.	.	2d	2f
.	.	2B	[2g
=3	=3	=3	=3
0r	0r	2c	4g]
.	.	.	4e
.	.	1d	2f
.	.	.	1e
.	.	[2c	.
=4	=4	=4	=4
1G	1r	4c]	2d
.	.	8B	.
.	.	8A	.
.	.	2B	2g
2A	2r	1c	2e
2A	2c	.	2f#
=5	=5	=5	=5
2G	2d	0r	1g
2E	2c	.	.
1F	2A	.	2f
.	2c	.	2e
=6	=6	=6	=6
1G	2c	0r	1d
.	2B	.	.
2.C	2c	.	2c
.	[2c	.	[2e
4D	.	.	.
=7	=7	=7	=7
4E	2c]	1r	2e]
4F	.	.	.
2G	2B	.	2d
1C	1c	2r	2.e
.	.	[2e	.
.	.	.	4f
=8	=8	=8	=8
0r	2c	2e]	1g
.	2B	2d	.
.	2A	2.e	2cc
.	2A	.	2cc
.	.	4f	.
=9	=9	=9	=9
1.E	2G	2g	1b
.	2B	1g	.
.	2c	.	1r
2D	[2d	2f	.
=10	=10	=10	=10
2.E	4d]	2e	0r
.	4c	.	.
.	1c	1e	.
4F	.	.	.
2G	.	.	.
2G	2B	2d	.
=11	=11	=11	=11
1C	2c	2.e	2r
.	1c	.	1e
.	.	4f	.
1r	.	2g	.
.	2B	2g	2d
=12	=12	=12	=12
0r	2A	2c	2.e
.	2.c	1e	.
.	.	.	4f
.	.	.	[1g
.	8B	.	.
.	8A	.	.
.	2B	2d	.
=13	=13	=13	=13
1r	2c	2e	2g]
.	2A	2f#	2a
2r	1G	1g	2b
[2E	.	.	2b
=14	=14	=14	=14
2E]	0r	2e	2cc
2D	.	2f	2.dd
2.E	.	2g	.
.	.	.	4cc
.	.	2e	[2cc
4F	.	.	.
=15	=15	=15	=15
1G	1r	1d	2cc]
.	.	.	2b
2C	2r	2e	2cc
2C	2e	2g	2cc
=16	=16	=16	=16
2F	2c	2f	2a
2A	2c	2e	2cc
1G	1d	[1g	1b
=17	=17	=17	=17
1D	1d	2g]	1a
.	.	2f	.
2.E	2B	2e	2.g
.	2G	2B	.
4D	.	.	4f
=18	=18	=18	=18
2C	2A	2c	2e
2D	2A	2A	2f#
1GG	2G	2.B	[1g
.	2d	.	.
.	.	4c	.
=19	=19	=19	=19
1G	2B	4d	0g]
.	.	4c	.
.	2d	4B	.
.	.	4A	.
2E	2c	1G	.
2G	4B	.	.
.	8A	.	.
.	8G	.	.
=20	=20	=20	=20
2F	4A	0r	0r
.	4B	.	.
4E	1c	.	.
8D	.	.	.
8C	.	.	.
1D	.	.	.
.	2B	.	.
=21	=21	=21	=21
[0C	0c	2r	2r
.	.	2e	2g
.	.	2c	2e
.	.	[2e	[2g
=22	=22	=22	=22
1C]	0r	4e]	4g]
.	.	4d	4f
.	.	2c	2e
2r	.	2B	2d
2G	.	2B	2d
=23	=23	=23	=23
2A	2r	1c	1c
2E	2G	.	.
2F#	2A	1r	1r
[2G	2B	.	.
=24	=24	=24	=24
4G]	1A	2r	1r
8F	.	.	.
8E	.	.	.
2F#	.	1d	.
1G	1G	.	2r
.	.	2e	2g
=25	=25	=25	=25
0r	1r	2f#	2a
.	.	1g	2b
.	2r	.	2a
.	[2d	2f#	2a
=26	=26	=26	=26
1G	2d]	1g	1g
.	2B	.	.
2E	1c	1r	1r
[2F	.	.	.
=27	=27	=27	=27
2F]	2A	0r	0r
2D	2B	.	.
2E	2c	.	.
[2F	[2d	.	.
=28	=28	=28	=28
2F]	4d]	0r	0r
.	4c	.	.
2E	1c	.	.
1D	.	.	.
.	2B	.	.
=29	=29	=29	=29
1C	1c	2.e	2.g
.	.	4e	4g
1r	1r	2f	2a
.	.	2e	2cc
=30	=30	=30	=30
0r	0r	2d	2b
.	.	2f	2a
.	.	2.e	2.g
.	.	4d	4f
=31	=31	=31	=31
0r	0r	2c	2e
.	.	2B	2d
.	.	2c	2e
.	.	2B	2g
=32	=32	=32	=32
1D	2r	1A	1f#
.	2d	.	.
2E	2c	1G	1g
[2G	[2B	.	.
=33	=33	=33	=33
4G]	4B]	1r	1r
4G	4B	.	.
2F	2A	.	.
2E	2B	2r	2r
2E	2c#	2G	2g
=34	=34	=34	=34
1D	1d	2A	2f
.	.	2B	2d
1r	1r	2c	2e
.	.	[2d	[2f
=35	=35	=35	=35
1r	1r	2d]	2f]
.	.	2c	2e
1G	2r	1B	[1d
.	2G	.	.
=36	=36	=36	=36
2F	2A	0r	1d]
2D	2B	.	.
2E	2c	.	1r
[2F	2d	.	.
=37	=37	=37	=37
2F]	1c	2r	2r
2E	.	2G	2g
1D	1d	2A	2f
.	.	2B	2d
=38	=38	=38	=38
1C	1G	4c	4e
.	.	4d	4f
.	.	4e	4g
.	.	4c	4e
1r	1r	2d	2f
.	.	[2c	2e
=39	=39	=39	=39
1r	0G	2c]	1d
.	.	2B	.
1GG	.	2r	1d
.	.	2B	.
=40	=40	=40	=40
1C	1G	1c	1.e
1AA	1A	1c	.
.	.	.	2f#
=41	=41	=41	=41
1GG	2B	1d	1g
.	2.G	.	.
1D	.	1d	1a
.	4F#	.	.
.	2F#	.	.
=42	=42	=42	=42
2GG	2G	2d	2b
2GG	2d	2g	2b
2.C	2.e	2.g	2.cc
4C	4e	4g	4cc
=43	=43	=43	=43
2C	2e	2g	2cc
1F	1c	1f	1a
2C	2c	2e	2g
=44	=44	=44	=44
2.F	2.c	2.f	2.a
4F	4c	4f	4a
2F	2c	2f	2a
2C	2c	2e	2g
=45	=45	=45	=45
2D	2A	2d	2f
2F	2A	2c	2f
1C	1G	2c	2e
.	.	2e	2g
=46	=46	=46	=46
1r	0d	1f#	1a
1GG	.	1g	1b
=47	=47	=47	=47
1AA	1c	1e	2cc
.	.	.	1a
1BB	1B	1d	.
.	.	.	[2g
=48	=48	=48	=48
1C	1A	1e	2g]
.	.	.	4f
.	.	.	4e
1D	1A	[1d	1f#
=49	=49	=49	=49
1GG	1B	1d]	1g
1r	1r	1r	1r
=50	=50	=50	=50
1C	1.c	1e	1g
1F	.	1f	1a
.	2c	.	.
=51	=51	=51	=51
1G	1B	1d	1g
1C	1c	1g	1e
=52	=52	=52	=52
2.D	0r	2.f	2.a
4E	.	4e	4g
2F	.	2d	2a
2G	.	2d	2b
=53	=53	=53	=53
1C	2r	1e	1cc
.	2G	.	.
2C	2.c	2e	1g
2C	.	2e	.
.	4c	.	.
=54	=54	=54	=54
2.D	2B	2.f	0r
.	2.A	.	.
4D	.	4f	.
2C	.	2e	.
.	4G	.	.
2BB	[2G	2d	.
=55	=55	=55	=55
1AA	2G]	2c	2r
.	2F#	2c	1cc
1GG	1G	2e	.
.	.	2d	2b
=56	=56	=56	=56
0r	2r	2f	2a
.	2C	1e	2g
.	1D	.	1f
.	.	[2d	.
=57	=57	=57	=57
0r	2E	4d]	1e
.	.	4c	.
.	2C	1c	.
.	1G	.	[1d
.	.	4B	.
.	.	4A	.
=58	=58	=58	=58
1G	0r	2B	2d]
.	.	2d	2g
2E	.	2g	2b
2E	.	2e	2cc
=59	=59	=59	=59
2D	0r	2f	2dd
2E	.	2g	2b
2C	.	2.e	2.cc
2E	.	.	.
.	.	4d	4b
=60	=60	=60	=60
2F	1r	2c	2a
2G	.	2B	2.g
2D	2r	1A	.
.	.	.	8f
.	.	.	8e
2D	2d	.	2f#
=61	=61	=61	=61
2G	2B	1G	1g
2E	1c	.	.
2F#	.	1r	1r
[2G	2B	.	.
=62	=62	=62	=62
4G]	1A	1r	1r
8F	.	.	.
8E	.	.	.
2F#	.	.	.
1G	1B	1d	2r
.	.	.	2d
=63	=63	=63	=63
0r	0r	2d	2f
.	.	2e	2g
.	.	2f	2a
.	.	2d	2b
=64	=64	=64	=64
2r	1r	4c	1cc
.	.	4d	.
2C	.	4e	.
.	.	4f	.
2.E	2r	1g	1b
.	2G	.	.
4F	.	.	.
=65	=65	=65	=65
2G	2B	1g	0r
2E	2c	.	.
2F	2d	1r	.
2G	2d	.	.
=66	=66	=66	=66
1C	1e	2r	2r
.	.	2g	2g
1r	1d	2f	2a
.	.	2d	2b
=67	=67	=67	=67
1A	1c	2e	2cc
.	.	2c	2a
2G	1r	2d	2b
2E	.	2e	[2cc
=68	=68	=68	=68
2F	2r	1d	4cc]
.	.	.	8b
.	.	.	8a
2G	2d	.	2b
2A	2c	1r	1cc
2F	2A	.	.
=69	=69	=69	=69
1E	2B	1g	1r
.	2c	.	.
1D	2d	2f	2r
.	2B	2d	2dd
=70	=70	=70	=70
0r	1A	2e	2cc
.	.	2f	2a
.	1r	2.e	2b
.	.	.	2cc
.	.	8d	.
.	.	8c	.
=71	=71	=71	=71
2.G	1r	1d	2.b
4G	.	.	8a
.	.	.	8g
2F	2.d	1r	1a
2D	.	.	.
.	4d	.	.
=72	=72	=72	=72
2E	2c	0r	0r
2F	2A	.	.
2E	2B	.	.
[2A	2c	.	.
=73	=73	=73	=73
4A]	2B	0r	0r
4G	.	.	.
1G	2B	.	.
.	1A	.	.
2F#	.	.	.
=74	=74	=74	=74
1G	1G	1r	1r
2.C	2.G	2.c	2.e
4C	4G	4c	4e
=75	=75	=75	=75
2C	2G	2c	2e
2C	2G	2c	2e
1GG	1G	1B	1d
=76	=76	=76	=76
2.C	2.G	2.c	2.e
4E	4G	4B	4e
2D	2A	2d	2f
2D	2B	2d	2f
=77	=77	=77	=77
1C	1c	2G	1e
.	.	2.g	.
2.E	2.B	.	2.g
.	.	4f	.
.	.	[2e	.
4E	4B	.	4g
=78	=78	=78	=78
2F#	2A	4e]	2a
.	.	4d	.
2G	2B	1d	2g
1E	1G	.	1g
.	.	2c#	.
=79	=79	=79	=79
1D	1A	2d	2f#
.	.	1d	2a
1r	1r	.	2b
.	.	2e	[2cc
=80	=80	=80	=80
0r	0r	2f	2cc]
.	.	2f	2a
.	.	2e	2.g
.	.	2c	.
.	.	.	4a
=81	=81	=81	=81
2r	0r	2d	2f
2C	.	1e	1g
2C	.	.	.
2D	.	2d	2f
=82	=82	=82	=82
2E	1r	1c	1e
2C	.	.	.
1G	2r	2B	1d
.	[2B	[2d	.
=83	=83	=83	=83
1GG	2B]	2d]	2r
.	2B	2d	1g
1r	1c	1e	.
.	.	.	2g
=84	=84	=84	=84
0r	2A	2c	1a
.	2F	2f	.
.	2c	2e	2g
.	2A	2c	2cc
=85	=85	=85	=85
1r	1G	2d	2b
.	.	1g	2g
[1D	2r	.	2a
.	[2d	2f#	[2a
=86	=86	=86	=86
2D]	2d]	1f#	2a]
2D	2d	.	2a
2G	2d	1g	2b
2G	2d	.	2b
=87	=87	=87	=87
1C	1e	1g	1cc
2G	2d	2g	2b
2G	2d	2g	2b
=88	=88	=88	=88
2D	2d	2f#	2a
2D	2d	2f#	2a
2G	2d	2g	2b
2G	2d	2g	2b
=89	=89	=89	=89
1C	1e	1g	1cc
1G	1d	1g	1b
=90	=90	=90	=90
2.G	2.B	2.d	2.g
4G	4B	4d	4g
2E	2c	2e	2g
2E	2B	2e	2g
=91	=91	=91	=91
1D	1d	1f#	2a
.	.	.	2b
2C	2e	[1g	2cc
2BB	2d	.	[2dd
=92	=92	=92	=92
1C	2.e	2g]	4dd]
.	.	.	4cc
.	.	2g	1cc
.	4c	.	.
1GG	1d	1g	.
.	.	.	2b
=93	=93	=93	=93
0C	0c	2g	2cc
.	.	2e	2g
.	.	2e	2g
.	.	2e	2g
=94	=94	=94	=94
0r	0r	1f	1a
.	.	2e	2g
.	.	2d	2f
=95	=95	=95	=95
1r	1A	2d	2e
.	.	2c#	2e
2r	1B	2d	1d
2G	.	2d	.
=96	=96	=96	=96
2G	1B	2d	0r
2G	.	2e	.
2.A	2.c	2.f	.
4A	4c	4e	.
=97	=97	=97	=97
2G	2B	2e	0r
2F	1A	2d	.
2E	.	2d	.
2E	[2G	2c#	.
=98	=98	=98	=98
0D	2G]	1d	2r
.	4F#	.	2a
.	4E	.	.
.	2F#	2r	2a
.	2F#	2d	2a
=99	=99	=99	=99
0r	1G	2d	2b
.	.	2d	2dd
.	2r	2e	2cc
.	2G	2g	2b
=100	=100	=100	=100
1r	1A	2f	4cc
.	.	.	4b
.	.	2e	2.a
2r	2B	4d	.
.	.	4B	4g
2C	2c	2e	[2g
=101	=101	=101	=101
1D	1A	1d	2g]
.	.	.	2f#
2E	2G	1c	2g
2F	[2A	.	2c
=102	=102	=102	=102
1D	2A]	1r	1d
.	2B	.	.
2C	2c	1c	2.e
[2c	2A	.	.
.	.	.	4f
=103	=103	=103	=103
2c]	1G	1d	1g
2B	.	.	.
2A	2r	2e	1a
2F	[2c	2f	.
=104	=104	=104	=104
1G	2c]	2d	1g
.	2B	2d	.
1r	4A	2e	1a
.	4G	.	.
.	4F	2A	.
.	4E	.	.
=105	=105	=105	=105
1r	1D	1d	1f
2r	1A	2c#	2e
[2A	.	[2c#	[2e
=106	=106	=106	=106
2A]	2r	2c#]	2e]
2A	2A	2c#	2f#
1G	1B	1d	1g
=107	=107	=107	=107
0C	1c	1g	1e
.	2G	2r	2.g
.	[2c	[2e	.
.	.	.	4f
=108	=108	=108	=108
0r	4c]	4e]	2e
.	4B	4d	.
.	2A	2c	2f
.	2B	2d	1g
.	[2c	[2e	.
=109	=109	=109	=109
0r	2c]	2e]	1g
.	2C	2e	.
.	2D	2d	2f
.	2E	[2c	2e
=110	=110	=110	=110
1r	2F	2c]	1d
.	2G	2B	.
2r	1C	[1c	2c
2E	.	.	2g
=111	=111	=111	=111
1F	2r	1c]	1a
.	2A	.	.
2G	1B	1r	1g
2E	.	.	.
=112	=112	=112	=112
4A	2c	0r	0r
4G	.	.	.
4F	2A	.	.
4E	.	.	.
2D	2B	.	.
2G	2B	.	.
=113	=113	=113	=113
2G	2.A	1r	2r
2F#	.	.	2a
.	4A	.	.
1G	2G	1d	1b
.	2B	.	.
=114	=114	=114	=114
1r	1A	1e	2cc
.	.	.	2a
2r	1r	2f	4dd
.	.	.	4cc
2G	.	2d	4b
.	.	.	4a
=115	=115	=115	=115
2E	0r	2e	2g
2C	.	2e	2cc
2G	.	2.d	2cc
2G	.	.	2b
.	.	4d	.
=116	=116	=116	=116
2C	1r	1c	2.cc
2E	.	.	.
.	.	.	4b
1F	1A	2r	4a
.	.	.	4g
.	.	[2d	4f
.	.	.	4e
=117	=117	=117	=117
2G	1B	2d]	2d
2E	.	2.e	2g
2A	2c	.	2e
.	.	4e	.
2F	2A	2f	[2a
=118	=118	=118	=118
2.G	2B	2d	4a]
.	.	.	4g
.	2B	2d	1g
4G	.	.	.
1D	2.A	2d	.
.	.	2d	2f#
.	4A	.	.
=119	=119	=119	=119
2.E	1G	1B	[0g
4D	.	.	.
1C	1c	1e	.
=120	=120	=120	=120
0GG	0B	0d	0g]
==	==	==	==
*-	*-	*-	*-
!!!CDT: 1525/^1526/-1594/2/2
!!!OCY: Italia
!!!AGN: Mass (Paraphrase)
!!!AST: renaissance, vocal
!!!ASW: Hymn
!!!PWK: Masses, Book 5
!!!RNB: Cadence finals: D
!!!YOR: Le Opere Complete, v. 15, p. 72
!!!YOO: Rome, Italy: Fratelli Scalera
!!!END: 1992//
!!!EED: John Miller
!!!YEC: Copyright 2000, John Miller
!!!YEN: United States of America
!!!YEM: Rights to all derivative electronic formats reserved.
!!!YEM: Refer to licensing agreement for further details.
!!!YEM: This file must be accompanied by the licensing agreement.
!!!YEM: A copy of the licensing agreement may be found at http://www.music-cog.ohio-state.edu/HumdrumDatabases/Palestrina/license.txt
!!!EMD: converted to Humdrum by Bret Aarden
